X: 132
T: Bai hao qiu The sand dunes of Agt
L: 1/8
M: 2/4
K: C
GA2c [I:setbarnb 1]| 
A GA,2 | 
DE2G | 
E CA,2 | 
GA2c | 
G> EA2 | 
GE3- | 
E4 | 
GA2c | 
A2a2 | 
DE2G | 
E Ca2 | 
CD2E | 
C A,E2 | 
CA,3- | 
A,4 |]

@@@ Tune index: 8800
